media/img/products/vpn/resource-center/icons/apple_icon.svg

<svg width="45" height="52" viewBox="0 0 45 52" fill="none" xmlns="http://www.w3.org/2000/svg">
<path d="M43.6898 40.2527C42.9029 42.0573 41.9716 43.7184 40.8924 45.2456C39.4215 47.3276 38.2171 48.7687 37.289 49.569C35.8502 50.8825 34.3086 51.5553 32.6578 51.5935C31.4727 51.5935 30.0435 51.2588 28.3799 50.5797C26.7108 49.9037 25.1769 49.569 23.7744 49.569C22.3034 49.569 20.7259 49.9037 19.0385 50.5797C17.3485 51.2588 15.9871 51.6127 14.9462 51.6477C13.3632 51.7147 11.7853 51.0228 10.2103 49.569C9.20508 48.6986 7.94772 47.2064 6.44146 45.0926C4.82536 42.8353 3.49671 40.2177 2.45581 37.2334C1.34105 34.01 0.782227 30.8887 0.782227 27.8668C0.782227 24.4052 1.53568 21.4197 3.04483 18.9178C4.23089 16.9082 5.80877 15.323 7.78361 14.1593C9.75845 12.9955 11.8923 12.4025 14.1902 12.3646C15.4476 12.3646 17.0964 12.7507 19.1454 13.5095C21.1887 14.2709 22.5006 14.657 23.0759 14.657C23.5059 14.657 24.9633 14.2055 27.434 13.3055C29.7705 12.4708 31.7425 12.1251 33.3579 12.2613C37.7354 12.612 41.0241 14.3251 43.2113 17.4114C39.2963 19.7662 37.3596 23.0645 37.3982 27.2958C37.4335 30.5915 38.6379 33.3341 41.0048 35.5117C42.0775 36.5224 43.2755 37.3035 44.6083 37.8583C44.3193 38.6905 44.0142 39.4875 43.6898 40.2527ZM33.6502 1.03333C33.6502 3.61653 32.6995 6.02845 30.8047 8.26091C28.518 10.9149 25.7521 12.4484 22.7528 12.2064C22.7145 11.8965 22.6924 11.5704 22.6924 11.2276C22.6924 8.74776 23.7798 6.09382 25.711 3.92385C26.6751 2.82516 27.9013 1.91161 29.3883 1.18286C30.8721 0.464983 32.2756 0.0679748 33.5956 0C33.6341 0.345326 33.6502 0.690715 33.6502 1.03333Z" fill="black"/>
</svg>

<svg width="45" height="52" fill="none" xmlns="http://www.w3.org/2000/svg"><path d="M43.69 40.253a28.021 28.021 0 0 1-2.798 4.993c-1.47 2.082-2.675 3.523-3.603 4.323-1.439 1.313-2.98 1.986-4.631 2.024-1.185 0-2.614-.334-4.278-1.013-1.67-.676-3.203-1.011-4.606-1.011-1.47 0-3.048.335-4.736 1.01-1.69.68-3.05 1.034-4.092 1.069-1.583.067-3.16-.625-4.736-2.079-1.005-.87-2.262-2.363-3.769-4.476-1.616-2.258-2.944-4.875-3.985-7.86C1.34 34.01.782 30.89.782 27.867c0-3.462.754-6.447 2.263-8.95 1.186-2.009 2.764-3.594 4.739-4.758a12.817 12.817 0 0 1 6.406-1.794c1.258 0 2.906.386 4.955 1.144 2.044.762 3.356 1.148 3.93 1.148.43 0 1.888-.451 4.359-1.351 2.336-.835 4.308-1.18 5.924-1.045 4.377.351 7.666 2.064 9.853 5.15-3.915 2.355-5.851 5.653-5.813 9.885.035 3.296 1.24 6.038 3.607 8.216a11.862 11.862 0 0 0 3.603 2.346 38.43 38.43 0 0 1-.918 2.395ZM33.65 1.033c0 2.584-.95 4.995-2.845 7.228-2.287 2.654-5.053 4.187-8.052 3.945a7.967 7.967 0 0 1-.06-.978c0-2.48 1.087-5.134 3.018-7.304.964-1.099 2.19-2.012 3.677-2.741C30.872.465 32.276.068 33.596 0c.038.345.054.69.054 1.033Z" fill="#000"/></svg>
